X: 299
T: Xiu huadeng
%%abc-version 2.0
%%abcx-abcm2ps-target-version 5.9.1 (29 Sep 2008)
%%abc-creator hum2abc beta
%%abcx-conversion-date 2013/10/02 07:52:29
%%abc-edited-by Helmut Schaffrath
%%humdrum-veritas 2522515225
%%humdrum-veritas-data 1646990848
%%continueall 1
%%barnumbers 0
L: 1/8
M: 4/4
K: Eb
z e d c G e d F [I:setbarnb 1]| 
c G B> c B/ c/ B/ F/ G/ c/ G | 
z A G G/ G< F G/ B B/ c/ | 
B B/ D< F G< B F/E2 | 
B CE2zG2B | 
c> e G> F G CE2 | 
e> d c c/ e/ G G B c/ e/ | 
d c A G/ F< E F/ G/ A/ G | 
z e d f c G B c/ e/ | 
d c A G B> FE2 |]  



